res/skins/DarkMetal/graphics/btn_longwave_end.svg

<?xml version="1.0" encoding="UTF-8" standalone="no"?>
<!-- Created with Inkscape (http://www.inkscape.org/) -->

<svg
   xmlns:dc="http://purl.org/dc/elements/1.1/"
   xmlns:cc="http://creativecommons.org/ns#"
   xmlns:rdf="http://www.w3.org/1999/02/22-rdf-syntax-ns#"
   xmlns:svg="http://www.w3.org/2000/svg"
   xmlns="http://www.w3.org/2000/svg"
   xmlns:xlink="http://www.w3.org/1999/xlink"
   xmlns:sodipodi="http://sodipodi.sourceforge.net/DTD/sodipodi-0.dtd"
   xmlns:inkscape="http://www.inkscape.org/namespaces/inkscape"
   width="25"
   height="25"
   viewBox="0 0 25 25"
   id="svg2"
   version="1.1"
   inkscape:version="0.91 r13725"
   sodipodi:docname="btn_longwave_end.svg">
  <defs
     id="defs4">
    <linearGradient
       id="linearGradient4260"
       inkscape:collect="always">
      <stop
         id="stop4262"
         offset="0"
         style="stop-color:#333333;stop-opacity:1" />
      <stop
         id="stop4264"
         offset="1"
         style="stop-color:#000000;stop-opacity:1" />
    </linearGradient>
    <radialGradient
       inkscape:collect="always"
       xlink:href="#linearGradient4260"
       id="radialGradient4199"
       cx="49.549362"
       cy="1016.939"
       fx="49.549362"
       fy="1016.939"
       r="50.506916"
       gradientTransform="matrix(1.1827817,8.4734526e-8,0,0.25666457,-45.856148,777.89468)"
       gradientUnits="userSpaceOnUse" />
    <inkscape:perspective
       id="perspective2840"
       inkscape:persp3d-origin="372.04724 : 350.78739 : 1"
       inkscape:vp_z="744.09448 : 526.18109 : 1"
       inkscape:vp_y="0 : 1000 : 0"
       inkscape:vp_x="0 : 526.18109 : 1"
       sodipodi:type="inkscape:persp3d" />
    <inkscape:perspective
       id="perspective2840-1"
       inkscape:persp3d-origin="372.04724 : 350.78739 : 1"
       inkscape:vp_z="744.09448 : 526.18109 : 1"
       inkscape:vp_y="0 : 1000 : 0"
       inkscape:vp_x="0 : 526.18109 : 1"
       sodipodi:type="inkscape:persp3d" />
  </defs>
  <sodipodi:namedview
     id="base"
     pagecolor="#ffffff"
     bordercolor="#666666"
     borderopacity="1.0"
     inkscape:pageopacity="0.0"
     inkscape:pageshadow="2"
     inkscape:zoom="4.3523455"
     inkscape:cx="8.4789908"
     inkscape:cy="24.157726"
     inkscape:document-units="px"
     inkscape:current-layer="layer1"
     showgrid="false"
     units="px"
     inkscape:window-width="1920"
     inkscape:window-height="1028"
     inkscape:window-x="-8"
     inkscape:window-y="-8"
     inkscape:window-maximized="1"
     objecttolerance="10"
     guidetolerance="9" />
  <metadata
     id="metadata7">
    <rdf:RDF>
      <cc:Work
         rdf:about="">
        <dc:format>image/svg+xml</dc:format>
        <dc:type
           rdf:resource="http://purl.org/dc/dcmitype/StillImage" />
        <dc:title></dc:title>
        <dc:creator>
          <cc:Agent>
            <dc:title>Jorge Rosa</dc:title>
          </cc:Agent>
        </dc:creator>
        <dc:description>Email: jorge.bigarte@gmail.com
Site:https://sites.google.com/site/jorgerosaportfolio</dc:description>
      </cc:Work>
    </rdf:RDF>
  </metadata>
  <g
     inkscape:label="Layer 1"
     inkscape:groupmode="layer"
     id="layer1"
     transform="translate(0,-1027.3622)">
    <g
       id="g4159"
       transform="matrix(1.0416667,0,0,1,-1.0416671,0)">
      <path
         inkscape:connector-curvature="0"
         id="rect4183"
         d="m 1,1027.3622 24,0 0,25 -24,0 z"
         style="opacity:1;fill:url(#radialGradient4199);fill-opacity:1;stroke:none;stroke-width:1.45610845;stroke-linecap:round;stroke-linejoin:round;stroke-miterlimit:4;stroke-dasharray:none;stroke-opacity:1" />
      <g
         transform="translate(-0.27718415,0.63375)"
         id="g4324">
        <path
           style="fill:none;fill-rule:evenodd;stroke:#000000;stroke-width:0.18016605px;stroke-linecap:butt;stroke-linejoin:miter;stroke-opacity:1"
           d="m 1.2771867,1029.1188 23.9999963,0"
           id="path5581-0-0-8-2-98"
           inkscape:connector-curvature="0" />
        <path
           style="fill:none;fill-rule:evenodd;stroke:#000000;stroke-width:0.18016605px;stroke-linecap:butt;stroke-linejoin:miter;stroke-opacity:1"
           d="m 1.2771867,1030.957 23.9999963,0"
           id="path5581-9-7-1-9-73"
           inkscape:connector-curvature="0" />
        <path
           style="fill:none;fill-rule:evenodd;stroke:#000000;stroke-width:0.18016605px;stroke-linecap:butt;stroke-linejoin:miter;stroke-opacity:1"
           d="m 1.2771867,1032.7951 23.9999963,0"
           id="path5581-1-4-5-4-4"
           inkscape:connector-curvature="0" />
        <path
           style="fill:none;fill-rule:evenodd;stroke:#000000;stroke-width:0.18016605px;stroke-linecap:butt;stroke-linejoin:miter;stroke-opacity:1"
           d="m 1.2771867,1034.6333 23.9999963,0"
           id="path5581-8-4-5-7-9"
           inkscape:connector-curvature="0" />
        <path
           style="fill:none;fill-rule:evenodd;stroke:#000000;stroke-width:0.18016605px;stroke-linecap:butt;stroke-linejoin:miter;stroke-opacity:1"
           d="m 1.2771867,1036.4712 23.9999963,0"
           id="path5581-01-40-1-3-03"
           inkscape:connector-curvature="0" />
        <path
           style="fill:none;fill-rule:evenodd;stroke:#000000;stroke-width:0.18016605px;stroke-linecap:butt;stroke-linejoin:miter;stroke-opacity:1"
           d="m 1.2771867,1038.3094 23.9999963,0"
           id="path5581-3-01-6-9-6"
           inkscape:connector-curvature="0" />
        <path
           style="fill:none;fill-rule:evenodd;stroke:#000000;stroke-width:0.18016605px;stroke-linecap:butt;stroke-linejoin:miter;stroke-opacity:1"
           d="m 1.2771867,1040.1476 23.9999963,0"
           id="path5581-82-36-5-3-86"
           inkscape:connector-curvature="0" />
        <path
           style="fill:none;fill-rule:evenodd;stroke:#000000;stroke-width:0.18016605px;stroke-linecap:butt;stroke-linejoin:miter;stroke-opacity:1"
           d="m 1.2771867,1041.9857 23.9999963,0"
           id="path5581-82-9-33-4-9-7"
           inkscape:connector-curvature="0" />
        <path
           style="fill:none;fill-rule:evenodd;stroke:#000000;stroke-width:0.18016605px;stroke-linecap:butt;stroke-linejoin:miter;stroke-opacity:1"
           d="m 1.2771867,1043.8236 23.9999963,0"
           id="path5581-82-3-0-0-5-8"
           inkscape:connector-curvature="0" />
        <path
           style="fill:none;fill-rule:evenodd;stroke:#000000;stroke-width:0.18016605px;stroke-linecap:butt;stroke-linejoin:miter;stroke-opacity:1"
           d="m 1.2771843,1045.6618 23.9999997,0"
           id="path5581-82-0-6-3-1-3"
           inkscape:connector-curvature="0" />
        <path
           style="fill:none;fill-rule:evenodd;stroke:#000000;stroke-width:0.18016605px;stroke-linecap:butt;stroke-linejoin:miter;stroke-opacity:1"
           d="m 1.2771867,1047.4999 23.9999963,0"
           id="path5581-82-1-1-3-3-8"
           inkscape:connector-curvature="0" />
        <path
           style="fill:none;fill-rule:evenodd;stroke:#000000;stroke-width:0.18016605px;stroke-linecap:butt;stroke-linejoin:miter;stroke-opacity:1"
           d="m 1.2771867,1049.3381 23.9999963,0"
           id="path5581-82-5-6-6-0-3"
           inkscape:connector-curvature="0" />
      </g>
      <g
         transform="translate(2.1540261,0.02438245)"
         id="g4380">
        <path
           style="fill:#000000;fill-opacity:1;fill-rule:evenodd;stroke:none;stroke-width:1px;stroke-linecap:butt;stroke-linejoin:miter;stroke-opacity:1"
           d="m 7.6934797,1035.2648 0,10.1562 4.9316343,-4.9316 z"
           id="path4529-5"
           inkscape:connector-curvature="0" />
        <path
           style="fill:none;fill-rule:evenodd;stroke:#000000;stroke-width:1px;stroke-linecap:butt;stroke-linejoin:miter;stroke-opacity:1"
           d="m 13.266,1035.1751 0,10.1669"
           id="path4363-8"
           inkscape:connector-curvature="0" />
        <g
           id="g4546"
           transform="translate(0.23279108,1.2283351)"
           style="fill:#666666">
          <path
             inkscape:connector-curvature="0"
             id="path4529"
             d="m 7.6645518,1033.0263 0,10.1562 4.9316342,-4.9316 z"
             style="fill:#666666;fill-opacity:1;fill-rule:evenodd;stroke:none;stroke-width:1px;stroke-linecap:butt;stroke-linejoin:miter;stroke-opacity:1" />
        </g>
        <path
           style="fill:none;fill-rule:evenodd;stroke:#666666;stroke-width:1px;stroke-linecap:butt;stroke-linejoin:miter;stroke-opacity:1"
           d="m 13.498468,1034.2685 0,10.1669"
           id="path4363"
           inkscape:connector-curvature="0" />
      </g>
    </g>
  </g>
</svg>

<?xml version="1.0" encoding="UTF-8" standalone="no"?>
<!-- Created with Inkscape (http://www.inkscape.org/) -->

<svg
   xmlns:dc="http://purl.org/dc/elements/1.1/"
   xmlns:cc="http://creativecommons.org/ns#"
   xmlns:rdf="http://www.w3.org/1999/02/22-rdf-syntax-ns#"
   xmlns:svg="http://www.w3.org/2000/svg"
   xmlns="http://www.w3.org/2000/svg"
   xmlns:xlink="http://www.w3.org/1999/xlink"
   xmlns:sodipodi="http://sodipodi.sourceforge.net/DTD/sodipodi-0.dtd"
   xmlns:inkscape="http://www.inkscape.org/namespaces/inkscape"
   width="29"
   height="29"
   viewBox="0 0 29 29"
   id="svg2"
   version="1.1"
   inkscape:version="0.92.1 r15371"
   sodipodi:docname="btn_longwave_end.svg">
  <defs
     id="defs4">
    <inkscape:perspective
       id="perspective2840"
       inkscape:persp3d-origin="372.04724 : 350.78739 : 1"
       inkscape:vp_z="744.09448 : 526.18109 : 1"
       inkscape:vp_y="0 : 1000 : 0"
       inkscape:vp_x="0 : 526.18109 : 1"
       sodipodi:type="inkscape:persp3d" />
    <inkscape:perspective
       id="perspective2840-1"
       inkscape:persp3d-origin="372.04724 : 350.78739 : 1"
       inkscape:vp_z="744.09448 : 526.18109 : 1"
       inkscape:vp_y="0 : 1000 : 0"
       inkscape:vp_x="0 : 526.18109 : 1"
       sodipodi:type="inkscape:persp3d" />
    <radialGradient
       inkscape:collect="always"
       xlink:href="#linearGradient4260"
       id="radialGradient4199"
       cx="49.549362"
       cy="1016.939"
       fx="49.549362"
       fy="1016.939"
       r="50.506916"
       gradientTransform="matrix(0.2111158,0,0,0.19103424,5.6898682,815.81776)"
       gradientUnits="userSpaceOnUse" />
    <linearGradient
       id="linearGradient4260"
       inkscape:collect="always">
      <stop
         id="stop4262"
         offset="0"
         style="stop-color:#1e1e1e;stop-opacity:1" />
      <stop
         id="stop4264"
         offset="1"
         style="stop-color:#000000;stop-opacity:1" />
    </linearGradient>
  </defs>
  <sodipodi:namedview
     id="base"
     pagecolor="#ffffff"
     bordercolor="#666666"
     borderopacity="1.0"
     inkscape:pageopacity="0.0"
     inkscape:pageshadow="2"
     inkscape:zoom="4.3523455"
     inkscape:cx="-66.19339"
     inkscape:cy="24.157726"
     inkscape:document-units="px"
     inkscape:current-layer="layer1"
     showgrid="false"
     units="px"
     inkscape:window-width="1920"
     inkscape:window-height="1028"
     inkscape:window-x="-8"
     inkscape:window-y="-8"
     inkscape:window-maximized="1"
     objecttolerance="10"
     guidetolerance="9" />
  <metadata
     id="metadata7">
    <rdf:RDF>
      <cc:Work
         rdf:about="">
        <dc:format>image/svg+xml</dc:format>
        <dc:type
           rdf:resource="http://purl.org/dc/dcmitype/StillImage" />
        <dc:title />
        <dc:creator>
          <cc:Agent>
            <dc:title>Jorge Rosa</dc:title>
          </cc:Agent>
        </dc:creator>
        <dc:description>Email: jorge.bigarte@gmail.com
Site:https://sites.google.com/site/jorgerosaportfolio</dc:description>
      </cc:Work>
    </rdf:RDF>
  </metadata>
  <g
     inkscape:label="Layer 1"
     inkscape:groupmode="layer"
     id="layer1"
     transform="translate(0,-1023.3622)">
    <g
       id="g4184"
       transform="matrix(1.2083334,0,0,1.16,-5.3173874,-134.94793)">
      <path
         inkscape:connector-curvature="0"
         id="rect4183"
         d="M 4.4005952,998.54323 H 28.400596 v 24.99997 H 4.4005952 Z"
         style="opacity:1;fill:url(#radialGradient4199);fill-opacity:1;stroke:none;stroke-width:1.45610845;stroke-linecap:round;stroke-linejoin:round;stroke-miterlimit:4;stroke-dasharray:none;stroke-opacity:1" />
      <g
         transform="translate(3.1234114,-28.18527)"
         id="g4324">
        <path
           style="fill:none;fill-rule:evenodd;stroke:#000000;stroke-width:0.18016605px;stroke-linecap:butt;stroke-linejoin:miter;stroke-opacity:1"
           d="M 1.2771867,1029.1188 H 25.277183"
           id="path5581-0-0-8-2-98"
           inkscape:connector-curvature="0" />
        <path
           style="fill:none;fill-rule:evenodd;stroke:#000000;stroke-width:0.18016605px;stroke-linecap:butt;stroke-linejoin:miter;stroke-opacity:1"
           d="M 1.2771867,1030.957 H 25.277183"
           id="path5581-9-7-1-9-73"
           inkscape:connector-curvature="0" />
        <path
           style="fill:none;fill-rule:evenodd;stroke:#000000;stroke-width:0.18016605px;stroke-linecap:butt;stroke-linejoin:miter;stroke-opacity:1"
           d="M 1.2771867,1032.7951 H 25.277183"
           id="path5581-1-4-5-4-4"
           inkscape:connector-curvature="0" />
        <path
           style="fill:none;fill-rule:evenodd;stroke:#000000;stroke-width:0.18016605px;stroke-linecap:butt;stroke-linejoin:miter;stroke-opacity:1"
           d="M 1.2771867,1034.6333 H 25.277183"
           id="path5581-8-4-5-7-9"
           inkscape:connector-curvature="0" />
        <path
           style="fill:none;fill-rule:evenodd;stroke:#000000;stroke-width:0.18016605px;stroke-linecap:butt;stroke-linejoin:miter;stroke-opacity:1"
           d="M 1.2771867,1036.4712 H 25.277183"
           id="path5581-01-40-1-3-03"
           inkscape:connector-curvature="0" />
        <path
           style="fill:none;fill-rule:evenodd;stroke:#000000;stroke-width:0.18016605px;stroke-linecap:butt;stroke-linejoin:miter;stroke-opacity:1"
           d="M 1.2771867,1038.3094 H 25.277183"
           id="path5581-3-01-6-9-6"
           inkscape:connector-curvature="0" />
        <path
           style="fill:none;fill-rule:evenodd;stroke:#000000;stroke-width:0.18016605px;stroke-linecap:butt;stroke-linejoin:miter;stroke-opacity:1"
           d="M 1.2771867,1040.1476 H 25.277183"
           id="path5581-82-36-5-3-86"
           inkscape:connector-curvature="0" />
        <path
           style="fill:none;fill-rule:evenodd;stroke:#000000;stroke-width:0.18016605px;stroke-linecap:butt;stroke-linejoin:miter;stroke-opacity:1"
           d="M 1.2771867,1041.9857 H 25.277183"
           id="path5581-82-9-33-4-9-7"
           inkscape:connector-curvature="0" />
        <path
           style="fill:none;fill-rule:evenodd;stroke:#000000;stroke-width:0.18016605px;stroke-linecap:butt;stroke-linejoin:miter;stroke-opacity:1"
           d="M 1.2771867,1043.8236 H 25.277183"
           id="path5581-82-3-0-0-5-8"
           inkscape:connector-curvature="0" />
        <path
           style="fill:none;fill-rule:evenodd;stroke:#000000;stroke-width:0.18016605px;stroke-linecap:butt;stroke-linejoin:miter;stroke-opacity:1"
           d="M 1.2771843,1045.6618 H 25.277184"
           id="path5581-82-0-6-3-1-3"
           inkscape:connector-curvature="0" />
        <path
           style="fill:none;fill-rule:evenodd;stroke:#000000;stroke-width:0.18016605px;stroke-linecap:butt;stroke-linejoin:miter;stroke-opacity:1"
           d="M 1.2771867,1047.4999 H 25.277183"
           id="path5581-82-1-1-3-3-8"
           inkscape:connector-curvature="0" />
        <path
           style="fill:none;fill-rule:evenodd;stroke:#000000;stroke-width:0.18016605px;stroke-linecap:butt;stroke-linejoin:miter;stroke-opacity:1"
           d="M 1.2771867,1049.3381 H 25.277183"
           id="path5581-82-5-6-6-0-3"
           inkscape:connector-curvature="0" />
      </g>
    </g>
    <g
       id="g4380"
       transform="matrix(0.93286108,0,0,0.89554659,4.3822131,106.63899)">
      <path
         inkscape:connector-curvature="0"
         id="path4529-5"
         d="m 7.6934797,1035.2648 v 10.1562 l 4.9316343,-4.9316 z"
         style="fill:#000000;fill-opacity:1;fill-rule:evenodd;stroke:none;stroke-width:1px;stroke-linecap:butt;stroke-linejoin:miter;stroke-opacity:1" />
      <path
         inkscape:connector-curvature="0"
         id="path4363-8"
         d="m 13.266,1035.1751 v 10.1669"
         style="fill:none;fill-rule:evenodd;stroke:#000000;stroke-width:1px;stroke-linecap:butt;stroke-linejoin:miter;stroke-opacity:1" />
      <g
         style="fill:#666666"
         transform="translate(0.23279108,1.2283351)"
         id="g4546">
        <path
           style="fill:#666666;fill-opacity:1;fill-rule:evenodd;stroke:none;stroke-width:1px;stroke-linecap:butt;stroke-linejoin:miter;stroke-opacity:1"
           d="m 7.6645518,1033.0263 v 10.1562 l 4.9316342,-4.9316 z"
           id="path4529"
           inkscape:connector-curvature="0" />
      </g>
      <path
         inkscape:connector-curvature="0"
         id="path4363"
         d="m 13.498468,1034.2685 v 10.1669"
         style="fill:none;fill-rule:evenodd;stroke:#666666;stroke-width:1px;stroke-linecap:butt;stroke-linejoin:miter;stroke-opacity:1" />
    </g>
  </g>
</svg>
